!!!OTL: HAENSCHEN WILLST DU TANZEN
!!!ARE: Europa, Mitteleuropa, Deutschland, Oberdiebach am Rhein
!!!SCT: K2358
!!!YEM: Copyright 1995, estate of Helmut Schaffrath.
**kern
*ICvox
*Ivox
*M4/4
*k[b-]
*F:
=1
{4cc
4cc
4a
4dd
=2
2cc
4a}
{4f
=3
4cc
4cc
4cc
4cc
=4
2ff
2r}
=5
{4cc
4cc
4a
4dd
=6
2cc
4a}
{4f
=7
4cc
4cc
4cc
4cc
=8
2ff
4r}
{4cc
=9
4cc
4f
4f
4dd
=10
4cc
4cc
4a}
{4a
=11
4cc
4cc
4cc
4dd
=12
4cc
4cc
4a}
{4f
=13
4cc
4cc
4cc
4cc
=14
2f
2r}
==
!!!AGN: Kinder - Lied, Reigen, Tanz - Spiel
!!!ONB: ESAC (Essen Associative Code) Database: KINDER
!!!AMT: simple quadruple
!!!AIN: vox
!!!EED: Helmut Schaffrath
!!!EEV: 1.0
*-
